X: 19711
T: Jenny Lind
R: polka
M: 2/4
K: Dmajor
V:1
F2A2 G2B2|A2d2 fdfd|A2c2 ecec|F2A2 d4|
F2A2 G2B2|A2d2 f2ef|g2ec Acec|d2dc d4:|
K:G
|:g2g2 e2ce|d2G2 BGBd|c2F2 FGAc|BcdB G2Bd|
g2g2 e2ce|d2G2 BGBd|c2AF DFAF|G2GF G4:|
V:2
"D"D2F2 "Em"E2G2|"D"F2A2 AFAF|"A"C2E2 cAGE|"D"D2F2 AGFE|
"D"DEFD "Em"EFGE|"D"F2A2 d2cd|"A"e2cA EAcA|"D"F2FE F4:|
K:G
|:"C"c2c2 G2EG|"G"B2D2 G2D2|"D"A2D2 DEFA|"G"GABG D2G2|
"C"Ecec Gcec|"G"B2D2 GDGB|"D7"FAdA FDCA,|"G"B,G,B,D G4:|

